X:85
T:Nanny's Delight
M:2/4
L:1/8
B:Thompson's Compleat Collection of 200 Favourite Country Dances, vol. 2 (London, 1765)
Z:Transcribed and edited by Flynn Titford-Mock, 2007
Z:abc's:AK/Fiddler's Companion
K:G
f | gdBG | cecA | BdBG | A3 d | gdBG | cecA | BdDF |1 G3 :|2 G4 ||
|: GDBD | ADcD | BdcB | cA "tr"A2 | GDBD | ADcD | BdDF | G4 :|

